Catalina-dark/status/22/system-devices-panel.svg

<?xml version="1.0" encoding="UTF-8" standalone="no"?>
<!-- Created with Inkscape (http://www.inkscape.org/) -->

<svg
   xmlns:dc="http://purl.org/dc/elements/1.1/"
   xmlns:cc="http://creativecommons.org/ns#"
   xmlns:rdf="http://www.w3.org/1999/02/22-rdf-syntax-ns#"
   xmlns:svg="http://www.w3.org/2000/svg"
   xmlns="http://www.w3.org/2000/svg"
   xmlns:xlink="http://www.w3.org/1999/xlink"
   xmlns:sodipodi="http://sodipodi.sourceforge.net/DTD/sodipodi-0.dtd"
   xmlns:inkscape="http://www.inkscape.org/namespaces/inkscape"
   version="1.0"
   width="22"
   height="22"
   id="svg2403"
   inkscape:version="0.92.4 5da689c313, 2019-01-14"
   sodipodi:docname="system-devices-panel.svg">
  <sodipodi:namedview
     pagecolor="#0a6e9f"
     bordercolor="#666666"
     borderopacity="1"
     objecttolerance="10"
     gridtolerance="10"
     guidetolerance="10"
     inkscape:pageopacity="1"
     inkscape:pageshadow="2"
     inkscape:window-width="1920"
     inkscape:window-height="1030"
     id="namedview12"
     showgrid="false"
     inkscape:zoom="9.8333333"
     inkscape:cx="-18.305085"
     inkscape:cy="8.6949148"
     inkscape:window-x="0"
     inkscape:window-y="26"
     inkscape:window-maximized="1"
     inkscape:current-layer="svg2403" />
  <metadata
     id="metadata15">
    <rdf:RDF>
      <cc:Work
         rdf:about="">
        <dc:format>image/svg+xml</dc:format>
        <dc:type
           rdf:resource="http://purl.org/dc/dcmitype/StillImage" />
        <dc:title></dc:title>
      </cc:Work>
    </rdf:RDF>
  </metadata>
  <defs
     id="defs2405">
    <linearGradient
       x1="11.644068"
       y1="2.4988678"
       x2="11.644068"
       y2="15.00281"
       id="linearGradient2392"
       xlink:href="#linearGradient3678"
       gradientUnits="userSpaceOnUse"
       gradientTransform="translate(-17.090416,3)" />
    <linearGradient
       x1="8.4964771"
       y1="-0.061573759"
       x2="8.4964771"
       y2="8.083209"
       id="linearGradient2395"
       xlink:href="#linearGradient3678"
       gradientUnits="userSpaceOnUse"
       gradientTransform="matrix(1.0526316,0,0,0.9843625,2.5789474,3.0602428)" />
    <linearGradient
       id="linearGradient3678">
      <stop
         id="stop3680"
         style="stop-color:#ffffff;stop-opacity:1"
         offset="0" />
      <stop
         id="stop3682"
         style="stop-color:#e6e6e6;stop-opacity:1"
         offset="1" />
    </linearGradient>
    <linearGradient
       x1="159.68553"
       y1="14.403693"
       x2="159.68553"
       y2="38.279892"
       id="linearGradient2388"
       xlink:href="#linearGradient3678"
       gradientUnits="userSpaceOnUse"
       gradientTransform="matrix(-0.4100229,0,0,0.5447147,78.029995,-3.8459034)" />
  </defs>
  <path
     d="m 11.241199,3.7288135 c -0.621174,0 -1.121252,0.5000783 -1.121252,1.1212516 v 4.4850064 c 0,0.6211733 0.500078,1.1212515 1.121252,1.1212515 0.621174,0 1.121252,-0.5000782 1.121252,-1.1212515 V 4.8500651 c 0,-0.6211733 -0.500078,-1.1212516 -1.121252,-1.1212516 z M 7.8774445,5.9713168 c -0.262198,0 -0.5109887,0.094234 -0.7007823,0.2452737 C 6.9940311,6.3705446 6.9357347,6.4256059 6.8613102,6.4969034 5.4274776,7.7264648 4.5136896,9.5377937 4.5136896,11.577576 c 0,3.715499 3.0120087,6.727509 6.7275094,6.727509 3.715501,0 6.727511,-3.01201 6.727511,-6.727509 0,-2.0397823 -0.913789,-3.8511112 -2.347621,-5.0806726 C 15.546665,6.4256059 15.488368,6.3705446 15.305736,6.2165905 15.115944,6.065551 14.867152,5.9713168 14.604955,5.9713168 c -0.619251,0 -1.121252,0.5020015 -1.121252,1.1212516 0,0.3487506 0.166265,0.6400682 0.420468,0.8409387 0.0452,0.042358 0.05992,0.066583 0.140157,0.1401565 1.03615,0.8174462 1.681877,2.0782164 1.681877,3.5039124 0,2.477 -2.008005,4.485006 -4.485006,4.485006 -2.4770004,0 -4.4850061,-2.008006 -4.4850061,-4.485006 0,-1.425696 0.6457274,-2.6864662 1.6818771,-3.5039124 C 8.518303,8.0000886 8.533025,7.9758646 8.5782263,7.9335071 8.8324301,7.7326366 8.9986962,7.441319 8.9986962,7.0925684 c 0,-0.6192501 -0.5020013,-1.1212516 -1.1212517,-1.1212516 z"
     inkscape:connector-curvature="0"
     id="path2991"
     style="color:#000000;display:inline;overflow:visible;visibility:visible;fill:#f2f2f2;fill-opacity:1;fill-rule:nonzero;stroke:none;stroke-width:0.91101694;marker:none;enable-background:accumulate" />
</svg>

<svg width="22" height="22" version="1.0" xmlns="http://www.w3.org/2000/svg">
<path d="m11.241 3.7288c-0.62117 0-1.1213 0.50008-1.1213 1.1213v4.485c0 0.62117 0.50008 1.1213 1.1213 1.1213s1.1213-0.50008 1.1213-1.1213v-4.485c0-0.62117-0.50008-1.1213-1.1213-1.1213zm-3.3638 2.2425c-0.2622 0-0.51099 0.094234-0.70078 0.24527-0.18263 0.15395-0.24093 0.20902-0.31535 0.28031-1.4338 1.2296-2.3476 3.0409-2.3476 5.0807 0 3.7155 3.012 6.7275 6.7275 6.7275 3.7155 0 6.7275-3.012 6.7275-6.7275 0-2.0398-0.91379-3.8511-2.3476-5.0807-0.074424-0.071298-0.13272-0.12636-0.31535-0.28031-0.18979-0.15104-0.43858-0.24527-0.70078-0.24527-0.61925 0-1.1213 0.502-1.1213 1.1213 0 0.34875 0.16626 0.64007 0.42047 0.84094 0.0452 0.042358 0.05992 0.066583 0.14016 0.14016 1.0362 0.81745 1.6819 2.0782 1.6819 3.5039 0 2.477-2.008 4.485-4.485 4.485-2.477 0-4.485-2.008-4.485-4.485 0-1.4257 0.64573-2.6865 1.6819-3.5039 0.080233-0.073575 0.094955-0.097799 0.14016-0.14016 0.2542-0.20087 0.42047-0.49219 0.42047-0.84094 0-0.61925-0.502-1.1213-1.1213-1.1213z" color="#000000" fill="#f2f2f2"/>
</svg>
